svgs/wordpress.svg

<svg viewBox="0 0 192 192" xml:space="preserve" style="fill-rule:evenodd;clip-rule:evenodd;stroke-linejoin:round;stroke-miterlimit:2" xmlns="http://www.w3.org/2000/svg"><path d="M732 864c-44.153 0-80 35.847-80 80s35.847 80 80 80 80-35.847 80-80-35.847-80-80-80Zm-10.643 127.101 8.979-25.67 15.421 45.179A68.486 68.486 0 0 1 732 1012c-5.915 0-11.654-.76-17.125-2.18l6.482-18.719Zm14.827-45.682 20.008 58.611 5.163-14.915-25.272-74.032h-10.254l10.148 29.73c.08.198.149.4.207.606Zm-62.311-30.336-.032.065 29.735 87.102 1.055.48 4.714-13.615-25.272-74.032h-10.2Zm122.73 7.65c-1.09 5.116-2.415 8.839-2.407 8.819l-20.829 59.549-3.169 9.149C788.181 988.009 800 967.374 800 944a67.85 67.85 0 0 0-3.397-21.267Zm-130.849 5.869 23.23 68.049C673.737 984.175 664 965.216 664 944c0-5.296.607-10.45 1.754-15.398Zm104.784-40.621C759.58 880.425 746.303 876 732 876c-22.177 0-41.888 10.639-54.301 27.083h18.654c3.311 0 6 2.689 6 6a6.003 6.003 0 0 1-5.604 5.987l19.01 55.689 8.298-23.722-10.908-31.954h-1.576c-3.312 0-6-2.688-6-6 0-3.311 2.688-6 6-6h37.252c3.312 0 6 2.689 6 6 0 3.312-2.688 6-6 6h-.062l19.006 55.676 3.088-8.828c8.131-22.87-2.132-38.26-2.132-38.26a5.217 5.217 0 0 1-.121-.182s-2.236-3.498-5.685-8.613c-5.34-7.92-3.248-18.732 2.715-23.854a18.444 18.444 0 0 1 4.904-3.041Zm12.651 38.642c.707-2.198 2.391-7.966 2.755-13.865.235-3.798.252-7.78-2.018-10.13-2.493-2.583-4.689-3.854-6.727-3.942-1.524-.065-2.794.621-3.745 1.438-2.003 1.721-2.379 5.383-.585 8.043a479.761 479.761 0 0 1 5.781 8.759c.378.555 2.624 3.979 4.539 9.697Z" style="fill-rule:evenodd;clip-rule:evenodd;stroke-linejoin:round;stroke-miterlimit:2" transform="translate(-636 -848)"/></svg>

<?xml version="1.0" encoding="UTF-8" standalone="no"?>
<svg
   width="100%"
   height="100%"
   viewBox="0 0 192 192"
   version="1.1"
   xml:space="preserve"
   style="fill-rule:evenodd;clip-rule:evenodd;stroke-linejoin:round;stroke-miterlimit:2;"
   id="svg10"
   sodipodi:docname="wordpress.svg"
   inkscape:version="1.2.1 (9c6d41e410, 2022-07-14)"
   xmlns:inkscape="http://www.inkscape.org/namespaces/inkscape"
   xmlns:sodipodi="http://sodipodi.sourceforge.net/DTD/sodipodi-0.dtd"
   xmlns="http://www.w3.org/2000/svg"
   xmlns:svg="http://www.w3.org/2000/svg"><defs
   id="defs14" /><sodipodi:namedview
   id="namedview12"
   pagecolor="#ffffff"
   bordercolor="#000000"
   borderopacity="0.25"
   inkscape:showpageshadow="2"
   inkscape:pageopacity="0.0"
   inkscape:pagecheckerboard="0"
   inkscape:deskcolor="#d1d1d1"
   showgrid="false"
   inkscape:zoom="3.0681503"
   inkscape:cx="86.534224"
   inkscape:cy="128.74207"
   inkscape:window-width="1274"
   inkscape:window-height="1303"
   inkscape:window-x="1282"
   inkscape:window-y="36"
   inkscape:window-maximized="0"
   inkscape:current-layer="svg10" />
    <path
   d="M732,864C687.847,864 652,899.847 652,944C652,988.153 687.847,1024 732,1024C776.153,1024 812,988.153 812,944C812,899.847 776.153,864 732,864ZM721.357,991.101L730.336,965.431L745.757,1010.61C741.316,1011.52 736.714,1012 732,1012C726.085,1012 720.346,1011.24 714.875,1009.82L721.357,991.101ZM736.184,945.419L756.192,1004.03L761.355,989.115L736.083,915.083C736.083,915.083 725.829,915.083 725.829,915.083L735.977,944.813C736.057,945.011 736.126,945.213 736.184,945.419ZM673.873,915.083L673.841,915.148C673.841,915.148 703.576,1002.25 703.576,1002.25C703.576,1002.25 704.631,1002.73 704.631,1002.73L709.345,989.115L684.073,915.083L673.873,915.083ZM796.603,922.733C795.513,927.849 794.188,931.572 794.196,931.552L773.367,991.101L770.198,1000.25C788.181,988.009 800,967.374 800,944C800,936.573 798.807,929.422 796.603,922.733ZM665.754,928.602L688.984,996.651C673.737,984.175 664,965.216 664,944C664,938.704 664.607,933.55 665.754,928.602ZM770.538,887.981C759.58,880.425 746.303,876 732,876C709.823,876 690.112,886.639 677.699,903.083L696.353,903.083C699.664,903.083 702.353,905.772 702.353,909.083C702.353,912.262 699.876,914.866 696.749,915.07L715.759,970.759L724.057,947.037L713.149,915.083L711.573,915.083C708.261,915.083 705.573,912.395 705.573,909.083C705.573,905.772 708.261,903.083 711.573,903.083L748.825,903.083C752.137,903.083 754.825,905.772 754.825,909.083C754.825,912.395 752.137,915.083 748.825,915.083L748.763,915.083L767.769,970.759L770.857,961.931C778.988,939.061 768.725,923.671 768.725,923.671C768.683,923.611 768.643,923.55 768.604,923.489C768.604,923.489 766.368,919.991 762.919,914.876C757.579,906.956 759.671,896.144 765.634,891.022C767.042,889.812 768.691,888.751 770.538,887.981ZM783.189,926.623C783.896,924.425 785.58,918.657 785.944,912.758C786.179,908.96 786.196,904.978 783.926,902.628C781.433,900.045 779.237,898.774 777.199,898.686C775.675,898.621 774.405,899.307 773.454,900.124C771.451,901.845 771.075,905.507 772.869,908.167C776.089,912.943 778.281,916.349 778.65,916.926C779.028,917.481 781.274,920.905 783.189,926.623Z"
   id="path4"
   style="fill-rule:evenodd;clip-rule:evenodd;stroke-linejoin:round;stroke-miterlimit:2"
   transform="translate(-636,-848)"
   inkscape:label="wordpress_form" />
</svg>
